X: 1134
T: The Fiery Clockface
M: 4/4
L: 1/8
R: highland fling
K: D Major
|: (3ABc |
(3ddd D>E F>GA<F | B>E (3EEE G>AB>c | 
(3ddd D>E F>GA<g | (3fed (3ABc d2 :|
|: d>g |
f<d (3def g2 (3fed | c>A (3AAA c>de<g |
f>d (3ddd g>fe>d | (3cBA (3ABc d2 :|
f>d (3gge f>d (3efg | (3aaa (3ABc d2 ||
